svgs/thin/up.svg

<svg xmlns="http://www.w3.org/2000/svg" viewBox="0 0 384 512"><!--! Font Awesome Pro 6.3.0 by @fontawesome - https://fontawesome.com License - https://fontawesome.com/license (Commercial License) Copyright 2023 Fonticons, Inc. --><path d="M256 448V256h96c12.94 0 24.61-7.797 29.56-19.75c1.641-3.963 2.438-8.123 2.438-12.25c0-8.326-3.25-16.51-9.375-22.63l-160-160C208.4 35.13 200.2 32 192 32S175.6 35.13 169.4 41.38l-159.1 160C3.252 207.5 .0001 215.7 .0001 224c0 4.123 .7968 8.281 2.437 12.25C7.391 248.2 19.06 256 32 256H128v192c0 17.67 14.33 32 32 32h64C241.7 480 256 465.7 256 448zM160 464c-8.822 0-16-7.178-16-16V240h-111.1c-6.492 0-12.29-3.877-14.78-9.867c-.8105-1.959-1.223-4.021-1.223-6.129c0-4.273 1.666-8.291 4.689-11.31l160-160C183.7 49.67 187.7 48 192 48c4.271 0 8.289 1.666 11.31 4.689l160 160C366.3 215.7 368 219.7 368 224c0 2.107-.4102 4.17-1.219 6.121C364.3 236.1 358.5 240 351.1 240h-111.1V448c0 8.822-7.178 16-15.1 16H160z"/></svg>

<svg xmlns="http://www.w3.org/2000/svg" viewBox="0 0 384 512"><!-- Font Awesome Pro 6.0.0-alpha2 by @fontawesome - https://fontawesome.com License - https://fontawesome.com/license (Commercial License) --><path d="M256 448V256H352C364.938 256 376.609 248.203 381.562 236.25C383.203 232.287 384 228.127 384 224.004C384 215.678 380.75 207.498 374.625 201.375L214.625 41.375C208.375 35.125 200.188 32 192 32S175.625 35.125 169.375 41.375L9.375 201.375C3.252 207.498 0 215.678 0 224.004C0 228.127 0.797 232.285 2.438 236.25C7.391 248.203 19.062 256 32 256H128V448C128 465.674 142.326 480 160 480H224C241.672 480 256 465.674 256 448ZM160 464C151.178 464 144 456.822 144 448V240H32C25.508 240 19.705 236.123 17.223 230.133C16.412 228.174 16 226.111 16 224.004C16 219.73 17.666 215.713 20.689 212.689L180.689 52.689C183.713 49.666 187.73 48 192 48C196.271 48 200.289 49.666 203.312 52.689L363.312 212.689C366.336 215.713 368 219.73 368 224.004C368 226.111 367.59 228.174 366.781 230.125C364.295 236.123 358.494 240 352 240H240V448C240 456.822 232.822 464 224 464H160Z"/></svg>
